src/assets/buttons/youtube.svg

<svg height="55" viewBox="0 0 55 55" width="55" xmlns="http://www.w3.org/2000/svg"><g fill="none"><rect fill="#141414" height="55" rx="2" width="55"/><path d="m44.1288337 19.9579035c-.3991734-1.503017-1.5752762-2.6867462-3.0685697-3.0884617-2.7067017-.7299642-13.560264-.7299642-13.560264-.7299642s-10.8534988 0-13.560264.7299642c-1.4932935.4017791-2.6693963 1.5854447-3.0685697 3.0884617-.7252613 2.7243057-.7252613 8.4083157-.7252613 8.4083157s0 5.6840099.7252613 8.4083157c.3991734 1.503017 1.5752762 2.6374294 3.0685697 3.0391448 2.7067652.7299642 13.560264.7299642 13.560264.7299642s10.8534988 0 13.560264-.7299642c1.4932935-.4017154 2.6693963-1.5361278 3.0685697-3.0391448.7252613-2.7243058.7252613-8.4083157.7252613-8.4083157s0-5.68401-.7252613-8.4083157zm-20.1785595 13.5689707v-10.32131l9.0714226 5.1607821z" fill="#fff"/></g></svg>

<svg xmlns="http://www.w3.org/2000/svg" width="55" height="55" viewBox="0 0 55 55">
  <g fill="none">
    <rect width="55" height="55" fill="#141414" rx="2"/>
    <path fill="#FFF" d="M44.1288337,19.9579035 C43.7296603,18.4548865 42.5535575,17.2711573 41.060264,16.8694418 C38.3535623,16.1394776 27.5,16.1394776 27.5,16.1394776 C27.5,16.1394776 16.6465012,16.1394776 13.939736,16.8694418 C12.4464425,17.2712209 11.2703397,18.4548865 10.8711663,19.9579035 C10.145905,22.6822092 10.145905,28.3662192 10.145905,28.3662192 C10.145905,28.3662192 10.145905,34.0502291 10.8711663,36.7745349 C11.2703397,38.2775519 12.4464425,39.4119643 13.939736,39.8136797 C16.6465012,40.5436439 27.5,40.5436439 27.5,40.5436439 C27.5,40.5436439 38.3534988,40.5436439 41.060264,39.8136797 C42.5535575,39.4119643 43.7296603,38.2775519 44.1288337,36.7745349 C44.854095,34.0502291 44.854095,28.3662192 44.854095,28.3662192 C44.854095,28.3662192 44.854095,22.6822092 44.1288337,19.9579035 Z M23.9502742,33.5268742 L23.9502742,23.2055642 L33.0216968,28.3663463 L23.9502742,33.5268742 Z"/>
  </g>
</svg>
